X:0374
T:A Trip to Sligo.
N:not the tune commonly known by this name today
M:6/8
L:1/8
Q:3/8=120
I: :: ::
Z:Jack Campin * www.campin.me.uk * 2009
K:G
  DGG EGG|DGG TA2G|gdd ecc|dAc  BAG|
  DGG EGG|DGG  A2G|gdd ecc|BGG  G3:|
  Bdd dbb|dcB Tc2B|Acc caa|cBA TB2
A|BGG EGG|DGG TA2G|gdd ecc|BGG  G3:|

